X: 060442
T: Fergus Reel
C: John Joe Casey (TREOIR 32/2)
Z: B.Black
R: Reel
M: 4/4
L: 1/8
K: D
fd~d2 edcA |BGEF GBAG |F3A G3B |Adef gbag |
fd~d2 edcA |BGEF GBAG |F3A G3B |Adag fdd2 ||
fd~d2 fdaf |ge (3ege gebe|fdAF G2AG|FAdf gbag |
fd~d2 fdaf |ge (3ege gebe|fdAF G2AG|FAag fdd2 ||
